packages/react-icons/icons/shrink.svg

<svg width="24" height="24" viewBox="0 0 24 24" xmlns="http://www.w3.org/2000/svg"><path fill-rule="evenodd" clip-rule="evenodd" d="M17.6322 12.068C18.1292 12.068 18.5322 11.6651 18.5322 11.168C18.5322 10.671 18.1292 10.268 17.6322 10.268L15.0052 10.2681L20.3853 4.88796C20.7367 4.53649 20.7367 3.96664 20.3853 3.61517C20.0338 3.26369 19.4639 3.26369 19.1125 3.61517L13.7324 8.99528L13.7324 6.36822C13.7324 5.87117 13.3294 5.46822 12.8324 5.46822C12.3353 5.46822 11.9324 5.87117 11.9324 6.36822L11.9324 11.1681C11.9324 11.4068 12.0272 11.6357 12.196 11.8045C12.3647 11.9733 12.5937 12.0681 12.8324 12.0681L17.6322 12.068ZM6.36533 11.9529C5.86827 11.9529 5.46533 12.3559 5.46534 12.853C5.46534 13.35 5.86829 13.7529 6.36534 13.7529L8.99233 13.7529L3.61224 19.133C3.26076 19.4845 3.26076 20.0543 3.61224 20.4058C3.96371 20.7573 4.53356 20.7573 4.88503 20.4058L10.2651 15.0257L10.2651 17.6527C10.2651 18.1498 10.6681 18.5527 11.1651 18.5527C11.6622 18.5527 12.0651 18.1498 12.0651 17.6527L12.0651 12.8529C12.0651 12.6142 11.9703 12.3853 11.8015 12.2165C11.6328 12.0477 11.4038 11.9529 11.1651 11.9529L6.36533 11.9529Z"/></svg>

<svg xmlns="http://www.w3.org/2000/svg" width="24" height="24"><path fill-rule="evenodd" d="M17.632 12.068a.9.9 0 0 0 0-1.8h-2.627l5.38-5.38a.9.9 0 0 0-1.273-1.273l-5.38 5.38V6.368a.9.9 0 0 0-1.8 0v4.8a.9.9 0 0 0 .9.9h4.8Zm-11.267-.115a.9.9 0 0 0 0 1.8h2.627l-5.38 5.38a.9.9 0 1 0 1.273 1.273l5.38-5.38v2.627a.9.9 0 0 0 1.8 0v-4.8a.9.9 0 0 0-.9-.9h-4.8Z" clip-rule="evenodd"/></svg>
